libs/ui/packages/crypto-icons/src/svg/ADA.svg

<svg width="24" height="24" viewBox="0 0 24 24" fill="none">
<path d="M11.7977 4.54884C12.1569 4.36359 12.5957 4.79184 12.4052 5.14509C12.2934 5.43309 11.8727 5.50959 11.6582 5.28984C11.4309 5.07984 11.5052 4.66284 11.7977 4.54809V4.54884ZM7.93144 4.95834C8.14969 4.86984 8.42644 5.06634 8.40394 5.30109C8.42644 5.55459 8.11144 5.74209 7.88869 5.62134C7.59394 5.50884 7.62769 5.03784 7.93144 4.95834ZM15.8499 5.62809C15.5087 5.58759 15.4547 5.05959 15.7824 4.95309C16.0374 4.83159 16.2714 5.06034 16.3089 5.29809C16.2549 5.50059 16.0824 5.68659 15.8499 5.62809ZM8.81119 6.57684C9.17644 6.34959 9.69694 6.68784 9.64069 7.10559C9.62194 7.52634 9.05344 7.77084 8.73244 7.48584C8.42194 7.26234 8.46919 6.74934 8.81119 6.57684ZM14.3837 6.81834C14.5464 6.40584 15.2064 6.39234 15.3917 6.79434C15.5754 7.10709 15.3497 7.49484 15.0234 7.60134C14.5907 7.68084 14.1804 7.22034 14.3837 6.81834ZM11.3319 7.57809C11.3282 7.22259 11.6567 6.95859 11.9994 6.93384C12.2274 6.97884 12.4749 7.07409 12.5724 7.29984C12.7547 7.61184 12.5927 8.04009 12.2649 8.18334C12.1149 8.26584 11.9364 8.23509 11.7729 8.22534C11.5232 8.10534 11.3124 7.86759 11.3319 7.57809ZM5.58244 8.09559C5.91619 7.89309 6.36619 8.26059 6.23944 8.61759C6.17044 8.92584 5.74894 9.05109 5.50819 8.85459C5.25094 8.67009 5.29144 8.22684 5.58319 8.09484L5.58244 8.09559ZM17.9289 8.09409C18.2117 7.87809 18.6789 8.12634 18.6444 8.47734C18.6639 8.79759 18.2597 9.03984 17.9792 8.87484C17.6702 8.73759 17.6379 8.26959 17.9289 8.09484V8.09409ZM12.9489 8.73234C13.4154 8.56734 13.9704 8.76459 14.2359 9.17484C14.5869 9.67509 14.4009 10.4371 13.8557 10.7243C13.2917 11.0641 12.4674 10.7768 12.2582 10.1558C12.0219 9.60084 12.3669 8.90634 12.9482 8.73234H12.9489ZM10.2092 8.78709C10.7267 8.54709 11.4234 8.74809 11.6732 9.26859C11.9672 9.77559 11.7399 10.4813 11.2142 10.7431C10.6877 11.0378 9.94444 10.8143 9.69019 10.2706C9.40444 9.74409 9.65794 9.02934 10.2092 8.78709ZM7.46644 9.70884C7.50619 9.38109 7.82044 9.16734 8.13769 9.14484C8.30314 9.16231 8.45777 9.2354 8.57629 9.35215C8.69482 9.46891 8.77023 9.62242 8.79019 9.78759C8.76769 10.1251 8.50294 10.4536 8.13994 10.4521C7.74019 10.4858 7.38994 10.0943 7.46644 9.70884ZM15.5679 9.21684C15.9782 8.98209 16.5474 9.32334 16.5294 9.78684C16.5572 10.2781 15.9272 10.6238 15.5192 10.3358C15.0947 10.0958 15.1277 9.42084 15.5679 9.21684ZM9.09544 10.9471C9.57394 10.8173 10.1229 11.0393 10.3577 11.4728C10.6149 11.9093 10.5099 12.5153 10.1102 12.8363C9.59644 13.3058 8.65069 13.1168 8.37769 12.4763C8.06344 11.8891 8.44519 11.1016 9.09469 10.9463L9.09544 10.9471ZM14.2907 10.9448C14.7564 10.8136 15.3039 10.9898 15.5544 11.4076C15.8859 11.8853 15.7277 12.5986 15.2349 12.9061C14.7174 13.2638 13.9179 13.0763 13.6329 12.5168C13.2879 11.9386 13.6352 11.1211 14.2907 10.9448ZM6.01069 11.4893C6.42469 11.3356 6.88369 11.7848 6.71569 12.1891C6.61369 12.5566 6.08644 12.6931 5.81419 12.4216C5.49544 12.1666 5.61319 11.6003 6.01069 11.4893ZM17.2374 12.0758C17.2297 11.9107 17.2874 11.7492 17.3981 11.6265C17.5087 11.5037 17.6634 11.4296 17.8284 11.4203C18.1119 11.4653 18.3879 11.6903 18.3654 11.9941C18.3917 12.3953 17.9004 12.6676 17.5524 12.4793C17.3897 12.3976 17.3064 12.2333 17.2374 12.0758ZM3.97444 11.6888C4.22344 11.5816 4.53169 11.7938 4.47469 12.0661C4.46119 12.3743 3.99844 12.4936 3.82894 12.2356C3.67894 12.0563 3.76894 11.7811 3.97444 11.6881V11.6888ZM19.6862 11.6821C19.8617 11.5598 20.1437 11.6476 20.2127 11.8493C20.3304 12.0698 20.1144 12.3713 19.8624 12.3346C19.5084 12.3661 19.3944 11.8358 19.6862 11.6821ZM10.4484 13.1618C11.1039 12.9946 11.8089 13.5323 11.8134 14.1968C11.8554 14.8681 11.1609 15.4628 10.4904 15.3083C9.97144 15.2258 9.56419 14.7338 9.58144 14.2186C9.57994 13.7251 9.95794 13.2661 10.4484 13.1618ZM13.0449 13.1611C13.7102 12.9781 14.4362 13.5256 14.4257 14.2051C14.4609 14.8636 13.7882 15.4388 13.1312 15.3076C12.5124 15.2296 12.0564 14.5613 12.2289 13.9703C12.3159 13.5773 12.6504 13.2578 13.0449 13.1603V13.1611ZM8.03794 13.5698C8.49844 13.4926 8.93044 13.9973 8.74369 14.4278C8.60719 14.8868 7.92919 15.0106 7.62919 14.6363C7.27819 14.2763 7.54069 13.6193 8.03794 13.5698ZM15.6534 13.5901C16.0644 13.4206 16.5684 13.7701 16.5369 14.2088C16.5534 14.6911 15.9309 15.0241 15.5297 14.7421C15.0744 14.4893 15.1577 13.7446 15.6534 13.5901ZM17.7819 15.6901C17.6214 15.3953 17.9132 15.0046 18.2469 15.0593C18.4119 15.0563 18.5282 15.1846 18.6339 15.2926C18.6557 15.4673 18.6924 15.6758 18.5447 15.8101C18.3444 16.0598 17.8907 15.9886 17.7819 15.6901ZM5.58094 15.1411C5.89219 14.9378 6.33994 15.2416 6.26944 15.5986C6.23194 15.9158 5.82694 16.0966 5.56069 15.9166C5.27419 15.7538 5.28469 15.2896 5.58094 15.1411ZM11.7257 15.8033C12.1329 15.6271 12.6519 15.9758 12.6129 16.4168C12.6429 16.9043 12.0017 17.2418 11.6034 16.9493C11.1609 16.6981 11.2352 15.9586 11.7257 15.8033ZM8.88019 16.4566C9.22669 16.2773 9.69169 16.5871 9.66019 16.9696C9.67069 17.2831 9.36019 17.5501 9.04519 17.5036C8.78494 17.4983 8.61544 17.2681 8.53144 17.0498C8.53594 16.8121 8.63569 16.5473 8.88019 16.4573V16.4566ZM14.6447 16.4626C15.0017 16.2451 15.5087 16.5571 15.4749 16.9651C15.4839 17.3926 14.9109 17.6656 14.5787 17.3851C14.2577 17.1653 14.2967 16.6373 14.6447 16.4626ZM15.6474 18.9001C15.4884 18.6646 15.6752 18.3803 15.9324 18.3263C16.1402 18.3676 16.3599 18.5213 16.3157 18.7568C16.2857 19.0771 15.8102 19.1746 15.6474 18.9008V18.9001ZM7.68919 18.6953C7.75219 18.5078 7.90519 18.3226 8.12944 18.3713C8.45569 18.3938 8.55244 18.8783 8.26669 19.0276C8.01019 19.1978 7.71169 18.9646 7.68919 18.6953ZM11.5292 18.9106C11.5914 18.6331 11.9552 18.4988 12.1952 18.6458C12.3542 18.7133 12.4007 18.8873 12.4412 19.0358C12.4198 19.113 12.3998 19.1905 12.3812 19.2683C12.2829 19.3823 12.1562 19.4971 11.9927 19.4933C11.6889 19.5286 11.4144 19.1903 11.5284 18.9106H11.5292Z" fill="#0D1E30"/>
</svg>

<svg width="24" height="24" viewBox="0 0 24 24" fill="none"><path fill="#0d1e30" d="M11.798 4.549c.359-.185.798.243.607.596-.112.288-.532.365-.747.145-.227-.21-.153-.627.14-.742m-3.867.41c.219-.09.495.107.473.342.022.254-.293.441-.515.32-.295-.112-.261-.583.042-.663m7.919.67c-.341-.041-.395-.57-.068-.676.255-.121.49.107.527.345-.054.203-.227.389-.46.33m-7.039.948c.365-.227.886.11.83.529-.02.42-.588.665-.909.38-.31-.224-.263-.737.08-.91m5.573.241c.162-.412.822-.426 1.008-.024.183.313-.042.7-.369.807-.432.08-.843-.38-.64-.783m-3.052.76c-.004-.355.325-.62.667-.644.228.045.476.14.573.366.183.312.02.74-.307.883-.15.083-.329.052-.492.042-.25-.12-.46-.357-.441-.647m-5.75.518c.334-.203.784.165.657.522-.069.308-.49.433-.73.237-.258-.185-.218-.628.074-.76m12.347-.002c.283-.216.75.032.715.383.02.32-.384.563-.665.398-.309-.137-.341-.605-.05-.78m-4.98.638a1.13 1.13 0 0 1 1.287.443c.35.5.165 1.262-.38 1.55-.564.34-1.389.052-1.598-.57-.236-.554.109-1.249.69-1.423m-2.74.055c.518-.24 1.214-.039 1.464.482.294.507.067 1.212-.459 1.474-.526.295-1.27.071-1.524-.472-.286-.527-.032-1.242.52-1.484m-2.743.922c.04-.328.354-.542.672-.564a.735.735 0 0 1 .652.643c-.022.337-.287.666-.65.664-.4.034-.75-.358-.674-.743m8.102-.492c.41-.235.98.106.961.57.028.491-.602.837-1.01.549-.424-.24-.391-.915.049-1.12m-6.473 1.73c.479-.13 1.028.092 1.263.526a1.085 1.085 0 0 1-.248 1.363c-.514.47-1.46.28-1.732-.36-.315-.587.067-1.374.717-1.53zm5.196-.002c.465-.131 1.013.045 1.263.463.332.477.174 1.19-.32 1.498-.517.358-1.316.17-1.601-.39-.345-.577.002-1.395.658-1.571m-8.28.544c.414-.153.873.296.705.7-.102.368-.63.504-.902.233-.319-.255-.2-.822.197-.933m11.226.587a.627.627 0 0 1 .591-.656c.284.045.56.27.537.574.027.401-.465.674-.813.485-.162-.081-.246-.246-.315-.403m-13.263-.387c.25-.107.558.105.5.377-.013.308-.476.428-.645.17-.15-.18-.06-.455.145-.548m15.712-.007c.176-.122.458-.034.527.167.117.22-.099.522-.35.486-.355.031-.469-.5-.177-.653m-9.238 1.48c.656-.167 1.36.37 1.365 1.035.042.671-.652 1.266-1.323 1.111-.519-.082-.926-.574-.909-1.09-.001-.493.377-.952.867-1.056m2.597 0c.665-.184 1.391.364 1.38 1.043.036.659-.637 1.234-1.294 1.103-.619-.078-1.075-.747-.902-1.338.087-.393.421-.712.816-.81zm-5.007.408c.46-.077.892.427.706.858-.137.459-.815.583-1.115.208-.35-.36-.088-1.017.409-1.066m7.615.02c.411-.17.915.18.884.619.016.482-.606.815-1.007.533-.456-.253-.372-.997.123-1.152m2.129 2.1c-.16-.295.131-.685.465-.63.165-.004.281.125.387.233.022.174.058.383-.09.517-.2.25-.653.179-.762-.12M5.58 15.141c.311-.203.759.1.688.458-.037.317-.442.498-.708.318-.287-.163-.276-.627.02-.776m6.145.662c.407-.176.926.173.887.614.03.487-.611.825-1.01.532-.442-.25-.368-.99.123-1.146m-2.846.654c.347-.18.812.13.78.513.01.313-.3.58-.615.534-.26-.006-.43-.236-.514-.454.005-.238.105-.503.35-.593m5.765.006c.357-.218.864.094.83.502.009.428-.564.7-.896.42-.321-.22-.282-.748.066-.922m1.002 2.437c-.159-.235.028-.52.285-.574.208.042.428.195.384.43-.03.321-.506.419-.669.145m-7.958-.205c.063-.187.216-.372.44-.324.327.023.423.507.138.657-.257.17-.555-.063-.578-.333m3.84.216c.062-.278.426-.412.666-.265.16.067.206.241.246.39a7 7 0 0 0-.06.232c-.098.114-.225.23-.388.225-.304.036-.579-.303-.465-.582z"/></svg>
